X:519
T:Glenbuchart Lodge 
C:Joe Buchanan's Scottish Tome - Page 006.1
I:006 1
C:Lindsay Ross
R:Reel
Z:Carl Allison
L:1/16
M:2/4
K:D
A2 | "D"fd "D7"de/f/ | "G"g2B2 B2ed |"A7" c2A2 gc |"D" d/e/f/g/ a2>A2 |
|"D" fd "D7"de/f/ |"G" g2B2 B2ed |"A7" c/d/e/c/ A2c2 |"D" d4 d2 :|
AG | "D"F2A2 "D7"d2A2 | "G"B2G2 G2BA | "E7"^G2B2 e2B2 |"Am"c2A2 ABAG |
|"D"F2A2 "D7"d2A2 | "G"B2G2 "E7"e2>d2 | "A7" cdec A2c2 | "D"d4 d2:|

